X: 174
T:Lemonville Jig
% Nottingham Music Database
S:J.C. Hayes (Canada), via Phil Rowe
M:6/8
K:D
fg|"D"aba afd|fgf fdA|"G"ded "D"dAF|"Em"G3 -Gef|
"A"gag gec|efe ecA|"A7"cBA gfe|"D"f3 "A7"f2g|
"D"aba afd|fgf fdA|"G"ded "D"def|"Em"B3 -Bef|
"A"gag gec|efe ecA|"A7"cBA gfe|"D"d3 d2||
A|"D"FGA "A""c#"ABc|"Bm"ded "D""a"def|"G"gag "D""f#"gfe|"Em"B3 -"E7"Bed|
"A"cea age|"A"cea age|"A7"cea gfe|"D"fd"A7"B A2G|
"D"FGA "A""c#"ABc|"Bm"ded "D""a"def|"G"gag "D""f#"gfe|"Em"B3 -"E7"Bed|
"A"cea age|"A"cea age|"A7"cea gfe|"D"d3 -d||<end>
<start>
